outputs/icons/date_time/schedule_round.svg

<svg xmlns="http://www.w3.org/2000/svg" width="1200" height="1200" fill="none"><path fill="#000" d="M900 150h50c55 0 100 45 100 100v250.67c0 27.61-22.385 50-50 50-26.755 0-48.605-21.02-49.935-47.445l-.065-.015V400H250v500c0 27.5 22.5 50 50 50h202.245v.55c24.065 3.61 42.515 24.38 42.515 49.45s-18.45 45.83-42.515 49.445v.555H250c-55.5 0-100-45-100-100l.5-700c0-55 44-100 99.5-100h50v-50c0-27.614 22.386-50 50-50s50 22.386 50 50v50h400v-50c0-27.614 22.385-50 50-50s50 22.386 50 50z"/><path fill="#000" fill-rule="evenodd" d="M752.5 1080.315q45.622 19.686 97.5 19.685 51.878.001 97.5-19.685 45.624-19.689 79.375-53.44t53.44-79.375q19.686-45.622 19.685-97.5.001-51.878-19.685-97.5-19.689-45.624-53.44-79.375c-22.5-22.5-48.96-40.315-79.375-53.435Q901.878 600.001 850 600q-51.878.001-97.5 19.69c-30.415 13.12-56.875 30.935-79.375 53.435s-40.315 48.96-53.435 79.375Q600.001 798.122 600 850q.001 51.878 19.69 97.5c13.12 30.415 30.935 56.875 53.435 79.375q33.751 33.751 79.375 53.44M875 840l92.5 92.5-35 35L825 860V725h50z"/></svg>

<svg width="1200" height="1200" viewBox="0 0 1200 1200" fill="none" xmlns="http://www.w3.org/2000/svg"><path d="M900 150H950C1005 150 1050 195 1050 250V500.67C1050 528.28 1027.615 550.67 1000 550.67C973.245 550.67 951.395 529.65 950.065 503.225L950 503.21V400H250V900C250 927.5 272.5 950 300 950H502.245V950.55C526.31 954.16 544.76 974.93 544.76 1000C544.76 1025.07 526.31 1045.83 502.245 1049.445V1050H250C194.5 1050 150 1005 150 950L150.5 250C150.5 195 194.5 150 250 150H300V100C300 72.386 322.386 50 350 50C377.614 50 400 72.386 400 100V150H800V100C800 72.386 822.385 50 850 50C877.615 50 900 72.386 900 100V150Z" fill="#1D1E23"/><path fill-rule="evenodd" d="M752.5 1080.315C782.915 1093.44 815.415 1100 850 1100C884.585 1100 917.085 1093.44 947.5 1080.315C977.915 1067.19 1004.375 1049.375 1026.875 1026.875C1049.375 1004.375 1067.19 977.915 1080.315 947.5C1093.44 917.085 1100 884.585 1100 850C1100 815.415 1093.44 782.915 1080.315 752.5C1067.19 722.085 1049.375 695.625 1026.875 673.125C1004.375 650.625 977.915 632.81 947.5 619.69C917.085 606.565 884.585 600 850 600C815.415 600 782.915 606.565 752.5 619.69C722.085 632.81 695.625 650.625 673.125 673.125C650.625 695.625 632.81 722.085 619.69 752.5C606.565 782.915 600 815.415 600 850C600 884.585 606.565 917.085 619.69 947.5C632.81 977.915 650.625 1004.375 673.125 1026.875C695.625 1049.375 722.085 1067.19 752.5 1080.315ZM875 840L967.5 932.5L932.5 967.5L825 860V725H875V840Z" fill="#1D1E23"/></svg>
